X:1
T:Title
%%score { 1 | 2 }
L:1/8
Q:1/4=92
M:6/8
K:Db
V:1 treble nm="Grand Piano"
V:2 bass 
V:1
 DF[FA] [GB]2 [FA] | A2 =G _G3 | [CE][DF][EG] [FA]2 [EG] | [EG]2 [DF] [DF]3 | %4
w: William~B.~Olmstead * * * *||||
 [FA][FB][Fc] [Fd]2 A | G2 F B3 | BBB c2 B | [CB]2 [CA] [CA]3 | [CEA][CFA][CGA] [DFd]2 [DFA] | %9
w: |||||
 [DAc]2 [DGB] [DGB]3 | [B,DG][A,DA][DB] [DA]2 [DF] | [CE]2 D D3 | AA[EA] [Fd]2 [Ad] | %13
w: ||||
 [Bd][Ac][B,GB] [DFA]3 | [Fd][Gc][CGB] [DGB] [FA]2 | [DAd][Gc][Fd] e3 | A[Ad][Ae] [Af]2 c | %17
w: ||||
 e2 d d3 | dcB A2 d |[M:9/8] [Ec]3 [Ge]3/2[Fd]3/2- [Fd]3 |] %20
w: |||
V:2
 [D,F,][D,A,D][D,A,] [D,D]2 [D,D] | [A,DF]2 [A,D_F][K:bass] [A,CE]3 | %2
 [A,,A,][A,,A,][A,,A,] [A,,A,]2 [C,A,] | [D,A,]2 [D,A,] [D,A,]3 | %4
 [D,A,][D,A,][D,A,] [D,A,]2 [D,F,D] | [E,A,C]2 [F,A,D] [G,D]3 | %6
 [E,=G,D][E,G,D][E,G,D] [E,G,E]2 [E,G,D] | [A,,G,]2 [A,,G,] [A,,G,]3 | G,F,E, D,2 D, | G,2 G, G,3 | %10
 G,,G,,[G,,G,] [D,F,]2 [D,A,] | [A,,G,]2 [D,F,] [D,F,]3 | [D,F,D][D,F,D][D,G,] [D,A,]2 [F,A,] | %13
 G,G,G, D,3 | [D,A,][D,B,]D, D, D,2 | F,[E,A,][D,A,] [A,CG]3 | [G,C][F,D][E,C] [D,D]2 [F,=A,E] | %17
 [G,CG]2 [G,B,G] [G,B,G]3 | [=G,B,_F][G,B,F][G,CF] [A,D=F]2 [A,F] | %19
[M:9/8][K:bass] [A,,A,]3 [A,,A,]3/2[D,A,]3/2- [D,A,]3 |] %20

